X: 1
T: Song of Morning Star
N: Derived from pawnee01.krn
O: Oklahoma, U.S.A.
N: from Pawnee Music by Frances Densmore, 1926
Z: transcribed to **kern format by David Huron, August 2000
C: Skidi and Chaui Bands, 1919
L: 1/4
M: 3/4
K: F clef=bass
%%linebreak <none>
C/ | 
C2C | 
CB,C | 
(G,>F,)F, | 
F,F,3/B,/ | 
G,2G, | 
CB,B, | 
G,G,F, | 
F,F,3/B,/ | 
G,2F, | 
F,F,3/F,/ | 
F,2F, | 
F,F,3/F,/ | 
G,2G, | 
CB,B,3// C// | 
G,2F, | 
F,F,3/(G,// F,//) | 
C,2C, | 
C,B,,C, | 
G,,2G,, | 
F,,F,,3/B,, | 
G,,2G,, | 
C,B,,C, | 
G,,G,,F,, | 
F,F,3/ |]  



